!!!PDT:	1923
!!!LANG: Non-Tone
!!!LING_GROUP: Siouan
!!!REG: Dakotas
!!!COM: Anon.
!!!OTL: Song of the Goose Women Society (b)
!!!ODT: <1918//
!!!MPN: Wopite [Scattered Corn, Mrs. Holding Eagle]
!!!MLC: Fort Berthold Reservation, North Dakota, United States of America
!! Song was recorded during either the summer of 1912, 1915, or 1918.
!!!AGN: monody
!!!SOCIAL_FUNCTION: Mandan Goose Women Society
!!!AMT: irregular
!!!RWG: Transcribed pitches, durations, and meters are only approximate.
!! Drum Tempo: MM160
**kern
*ICvox
*Ifemale
*clefG2
*k[b-e-]
*M2/4
*MM160
8b-
=1
2b-
=2
4.f
8f
=3
2b-
=4
4cc
4cc
=5
8cc
8b-
8b-
8f
=6
8g
8f
4f
=7
4e-
4e-
=8
2f
=9
4g
4g
=10
8g
8f
8f
8d
=11
8g
8f
8f
8d
=12
4B-
4B-
=13
[2e-
=14
4e-]
4f
=15
8f
8e-
8e-
8c
=16
8f
8e-
8e-
8c
=17
4B-
4c
=18
4B-
4B-
=19
2B-
=20
2B-
==
*-
!!!CNT: Mandan
!!!TXO: Mandan
!!!OCY: United States
!!!OCL: Frances Densmore
!!!YOR: Frances Densmore, "Mandan and Hidatsa Music",
!!!YOR: Bulletin 80, page 46, No. 5
!!!PPR: Smithsonian Institution, Bureau of American Ethnology
!!!PPR: Government Printing Office
!!!PDT: 1923
!!!PPP: Washington, DC, United States of America
!!!YEC: Electronic Copyright 2000 David Huron
!!!YER: August 2000
!!!YEN: United States of America
!!!ENC: David Huron
!!!RDT: August 16, 2000
!!!EEV: Release 1.0
!!!AIN: tom, vox
